X: 1
T:F-F-F-F-Frustration
M:C|
L:1/8
Q:80
C:Michael Grey
S:Hornpipe
K:HP
|: e/2|
{g}A/2a/2{g}a/2g/2{a}e/2g/2{f}g/2a/2|
{g}a/2A/2{g}e/2a/2d/2B/2{G}B/2e/2|  !
{g}A/2a/2e/2a/2{g}a/2e/2{A}e/2a/2|
g/2e/2{g}d/2B/2{g}e{AGAG}A/2e/2|
{g}A/2a/2{g}a/2g/2{a}e/2g/2{f}g/2a/2|  !
{g}a/2A/2{g}e/2a/2d/2B/2{G}B/2e/2|
{g}A/2a/2A/2a/2g/2A/2{g}e/2a/2|
g/2e/2{g}d/2B/2{g}e{AGAG}A/2:| |:  !
e/2|
{A}e{g}G/2A/2{g}B/2{G}B/2e/2{g}d/2|
{g}e/2a/2g/2d/2{g}e/2d/2{G}d/2e/2|
{g}A/2a/2g/2{a}e/2{A}e/2d/2{G}d/2g/2|  !
g/2e/2{g}d/2B/2{g}e{AGAG}A/2e/2|1
{A}e{g}G/2A/2{g}B/2{G}B/2e/2{g}d/2|
{g}e/2a/2g/2d/2{g}e/2d/2{G}d/2e/2|  !
{g}A/2a/2A/2a/2g/2A/2{g}e/2a/2|
g/2e/2{g}d/2B/2{g}e{AGAG}A/2:| [|
e/2|  !
{A}e{g}G/2A/2{g}B/2{G}B/2e/2{g}d/2|
{g}e/2a/2g/2d/2{g}e/2d/2{G}d/2e/2|
{g}A/2a/2g/2{a}e/2{A}e/2d/2{G}d/2g/2|  !
g/2e/2{g}d/2B/2{g}e{AGAG}A/2e/2:|2
{A}e{g}G/2A/2{g}B/2{G}B/2e/2{g}d/2|
{g}e/2a/2g/2d/2{g}e/2d/2{G}d/2e/2|  !
{g}A/2a/2{g}a/2g/2{a}e/2g/2{f}g/2a/2|
{g}a/2e/2{g}d/2B/2{g}e{AGAG}A|]
